X:2
T:T201B- Bessy Bell and Mary Grey
S: Orpheus Caledonius, I, 1733
L:1/8
M:6/8
K:D
A|F3/2G/ A (A3/2B/) =c|(B3/2A/) BG2G|(F3/2G/) A (A3/2B/) A|\
d3({d/e/}g2)A|(F3/2G/ A (A3/2B/) =c|(B3/2A/) G g2e|\
({f/g/}a2 (g/f/) ({e/f/}g2) (f/e/)|d3({d/e/}f2||\
a|(f3/2e/) f (d3/2e/) f|(ge) =c (ef) g|(af) d (d3/2e/) d|\
~f3 g2 (f/g/)|(af) d (fg) a|(ge) =c (ef) g|\
({f/g/}a2(g/f/) ({e/f/}G2) (g/f/)|d3({d/e/}f2)||]

